X: 23162
T: Le Galant Indiscret
R: waltz
M: 3/4
K: Dminor
FFE|:D2dd2^c|A3A2F|G3 BAG|A3D3|c3c2d|
d3A3|c3c2d|A3A2F|G3BAG|F3D2D|E3GFE|D3FFE:|

